!!!COM: Paul Hindemith
!!!OTL: [T674_Hin-w94p51m2-1hKm1-5]
**kern	**kern	**dynam	**kern	**dynam	**kern	**dynam	**kern	**dynam	**kern	**dynam
*grp:A	*grp:A	*	*grp:B	*	*grp:B	*	*grp:B	*	*grp:B	*
*part5	*part5	*part5	*part4	*part4	*part3	*part3	*part2	*part2	*part1	*part1
*staff6	*staff5	*	*staff4	*	*staff3	*	*staff2	*	*staff1	*
*I"Harp Solo	*	*	*I"Bassoon Solo	*	*I"Clarinet in Bb Solo	*	*I"Oboe Solo	*	*I"Flute Solo	*
*I'Hp.	*	*	*I'Bsn.	*	*I'Cl.	*	*I'Ob.	*	*I'Fl.	*
*clefG2	*clefG2	*	*clefF4	*	*clefG2	*	*clefG2	*	*clefG2	*
*	*	*	*	*	*ITrd1c2	*	*	*	*	*
*k[]	*k[]	*	*k[]	*	*k[b-e-]	*	*k[]	*	*k[]	*
*	*	*	*	*	*	*	*	*	*	*
*M4/4	*M4/4	*	*M4/4	*	*M4/4	*	*M4/4	*	*M4/4	*
=1	=1	=1	=1	=1	=1	=1	=1	=1	=1	=1
!	!	!	!	!	!	!	!	!	!LO:TX:t=[[half]=92]	!
!	!	!	!	!LO:DY:ed=brack	!	!LO:DY:ed=brack	!	!LO:DY:ed=brack	!	!LO:DY:ed=brack
1r	1r	.	8GG	mf	2e-	mf	8cc	mf	4ee-X	mf
.	.	.	8r	.	.	.	8r	.	.	.
*	*	*	*	*	*	*	*	*	*Xtuplet	*
.	.	.	(4GG	.	.	.	(4cc	.	(12ee-L	.
.	.	.	.	.	.	.	.	.	12dd	.
.	.	.	.	.	.	.	.	.	12ee-J)	.
*	*	*	*	*	*	*	*Xtuplet	*	*	*
.	.	.	8C)	.	4.e-	.	12b-XL)	.	4ff	.
.	.	.	.	.	.	.	12a-X	.	.	.
.	.	.	8r	.	.	.	.	.	.	.
.	.	.	.	.	.	.	12gJ	.	.	.
.	.	.	4C	.	.	.	4a-	.	(12ffL	.
.	.	.	.	.	.	.	.	.	12ee-	.
.	.	.	.	.	8e-	.	.	.	.	.
.	.	.	.	.	.	.	.	.	12ddJ)	.
=2	=2	=2	=2	=2	=2	=2	=2	=2	=2	=2
1r	1r	.	4BB-X	.	(4g	.	2e-X	.	(12ccL	.
.	.	.	.	.	.	.	.	.	12b-X)	.
.	.	.	.	.	.	.	.	.	12ccJ	.
.	.	.	8AA-XL	.	4f)	.	.	.	[4cc	.
.	.	.	8GGJ	.	.	.	.	.	.	.
.	.	.	4r	.	4d'	.	(4f	.	12ccL]	.
.	.	.	.	.	.	.	.	.	12ff	.
.	.	.	.	.	.	.	.	.	12ccJ	.
.	.	.	4FF'	.	4B-'	.	8g)	.	(12ccL	.
.	.	.	.	.	.	.	.	.	12ff)	.
.	.	.	.	.	.	.	8r	.	.	.
.	.	.	.	.	.	.	.	.	12ccJ	.
=3	=3	=3	=3	=3	=3	=3	=3	=3	=3	=3
4ryy	4ryy	.	4EE-X'	.	4.B-	p	4g	.	4b-X	.
4ryy	4ryy	.	4r	.	.	.	12ffL	p	4r	.
.	.	.	.	.	.	.	12ff	.	.	.
.	.	.	.	.	8e-	.	.	.	.	.
.	.	.	.	.	.	.	12ffJ	.	.	.
*Xtuplet	*8va	*	*	*	*	*	*	*	*	*
*	*Xtuplet	*	*	*	*	*	*	*	*	*
!	!LO:TX:a:t= disregard the meter of the other players	!	!	!	!	!	!	!	!	!
!	!LO:TX:a:t= play without any regularity,	!	!	!	!	!	!	!	!	!
36%19ccc-X	36%19cccc-X	mp	2r	.	4.e-	.	8.ffL	.	4r	.
.	.	.	.	.	.	.	16ee-XJk	.	.	.
.	.	.	.	.	.	.	8.ee-L	.	12eee-XL	p
.	.	.	.	.	.	.	.	.	12eee-	.
.	.	.	.	.	8g	.	.	.	.	.
.	.	.	.	.	.	.	.	.	12eee-J	.
.	.	.	.	.	.	.	16dd-XJk	.	.	.
=-	=-	=-	=	=	=	=	=	=	=	=
.	.	.	2r	.	(4g	.	(12dd-XL	.	8.eee-XL	.
36%19gg-X	36%19ggg-X	.	.	.	.	.	.	.	.	.
.	.	.	.	.	.	.	12cc)	.	.	.
.	.	.	.	.	.	.	12b-XJ	.	.	.
.	.	.	.	.	.	.	.	.	16ddd-XJk	.
.	.	.	.	.	4f)	.	8a-X	.	(12ddd-L	.
.	.	.	.	.	.	.	.	.	12ccc)	.
.	.	.	.	.	.	.	8r	.	.	.
.	.	.	.	.	.	.	.	.	12bb-XJ	.
*	*	*	*Xtuplet	*	*	*	*	*	*	*
.	.	.	12GL	.	4d'	.	2r	.	8ccc	.
36%19aa-X	36%19aaa-X	.	.	.	.	.	.	.	.	.
.	.	.	12G	.	.	.	.	.	.	.
.	.	.	.	.	.	.	.	.	8r	.
.	.	.	12GJ	.	.	.	.	.	.	.
.	.	.	8.GL	.	4B-'	.	.	.	4r	.
.	.	.	16FJk	.	.	.	.	.	.	.
=-	=-	=-	=	=	=	=	=	=	=	=
.	.	.	8.FL	.	4.B-	.	2r	.	12a-XL	.
36%19dd-X	36%19ddd-X	.	.	.	.	.	.	.	12a-	.
.	.	.	.	.	.	.	.	.	12a-J	.
.	.	.	16E-XJk	.	.	.	.	.	.	.
.	.	.	(12E-L	.	.	.	.	.	8.a-L	.
.	.	.	12D)	.	.	.	.	.	.	.
.	.	.	.	.	8g	.	.	.	.	.
.	.	.	12CJ	.	.	.	.	.	.	.
.	.	.	.	.	.	.	.	.	16gJk	.
.	.	.	8BBn	.	4.g	.	4r	.	(12gL	.
.	.	.	.	.	.	.	.	.	12f)	.
36%19ff-X	36%19fff-X	.	.	.	.	.	.	.	.	.
.	.	.	8r	.	.	.	.	.	.	.
.	.	.	.	.	.	.	.	.	12e-XJ	.
!	!	!	!	!	!	!	!LO:TX:b:i:t=[cresc.]	!	!	!
.	.	.	4r	.	.	.	12gg-XL	<	8d	.
.	.	.	.	.	.	.	12gg-	.	.	.
.	.	.	.	.	8b-	.	.	.	8r	.
.	.	.	.	.	.	.	12gg-J	.	.	.
=-	=-	=-	=	=	=	=	=	=	=	=
!	!	!	!	!	!LO:TX:b:i:t=[cresc.]	!	!	!	!	!
.	.	.	1r	.	2b-	<	8.gg-XL	.	4r	.
36%19gg-X	36%19ggg-X	.	.	.	.	.	.	.	.	.
.	.	.	.	.	.	.	16ffJk	.	.	.
.	.	.	.	.	.	.	8.ffL	.	12ccc-XL	<
.	.	.	.	.	.	.	.	.	12ccc-	.
.	.	.	.	.	.	.	.	.	12ccc-J	.
.	.	.	.	.	.	.	16ee-XJk	.	.	.
.	.	.	.	.	4a-X	.	(12ee-L	.	8.ccc-L	.
.	.	.	.	.	.	.	12dd-X)	.	.	.
36%19ee-X	36%19eee-X	.	.	.	.	.	12ccnJ	.	.	.
.	.	.	.	.	.	.	.	[	16bb-XJk	.
.	.	.	.	.	4g	.	8dd-	.	(12bb-L	.
.	.	.	.	.	.	.	.	.	12aa-X)	.
.	.	.	.	.	.	.	8r	.	.	.
.	.	.	.	.	.	.	.	.	12ggnJ	[
=-	=-	=-	=	=	=	=	=	=	=	=
.	.	.	12d-XL	mf	4f	.	2r	.	8aa-X	.
.	.	.	12d-	.	.	.	.	.	.	.
.	.	.	.	.	.	.	.	.	8r	.
.	.	.	12d-J	.	.	.	.	.	.	.
36%19aa-X	36%19aaa-X	.	.	.	.	.	.	.	.	.
.	.	.	8.d-L	.	8.eXL	.	.	.	4r	.
.	.	.	16cJk	.	16gJk	.	.	.	.	.
.	.	.	8.cL	.	4f	.	12ee-XL	mf	2r	.
.	.	.	.	.	.	.	12ee-	.	.	.
.	.	.	.	.	.	.	12ee-J	.	.	.
.	.	.	16B-XJk	.	.	.	.	.	.	.
36%19ccc-X	36%19cccc-X	.	.	.	.	.	.	.	.	.
.	.	.	(12B-L	.	8.cL	.	8.ee-L	.	.	.
.	.	.	.	.	.	.	.	.	.	.
.	.	.	12A-X)	.	.	.	.	.	.	.
.	.	.	.	.	.	.	.	.	.	.
.	.	.	12GJ	.	.	.	.	.	.	.
.	.	.	.	.	.	.	.	.	.	.
.	.	.	.	.	16e-XJ	[	16dd-J	.	.	.
*	*X8va	*	*	*	*	*	*	*	*	*
=-	=-	=-	=	=	=	=	=	=	=	=
.	.	.	4ryy	.	4ryy	.	4ryy	.	4ryy	.
*-	*-	*-	*-	*-	*-	*-	*-	*-	*-	*-
!!!system-decoration: [(s1,s2,s3,s4)][({(s5,s6)})]
